X:2472
L:1/8
Q:1/8=150
M:2/2
K:D
"^A modal" AG | EAA^G AcBA | ^GABc d2 ef | =gfge dcBd | cAB^G EFGB | EAA^G AcBA | ^GABc d2 ef | 
 =gfgd edBG | A2 AG A2 :| ef | =gfge agae | =gfge dBcd | c2 cB A2 ^GA | BcBA ^GEFD | EAA^G AcBA | 
 ^GABc d2 ef | =gfgd edBG | A2 AG A2 :|

